X: 1
T:The Cork Hornpipe
M:C|
L:1/8
Q:80
C:Trad. Arr. by T. Tully
S:Hornpipe
K:HP
|: {g}d3/4B/4|
{g}G3/4d/4{g}B/4d3/4{g}G3/4d/4{g}B/4d3/4|
{g}G3/4d/4{g}f3/4e/4{gde}d3/4c/4{g}B3/4A/4|  !
{gef}e3/4A/4{g}f3/4A/4{a}g3/4A/4{g}f3/4A/4|
{gef}e3/4d/4{g}c3/4B/4{G}A{g}d3/4B/4{g}G3/4d/4{g}B/4d3/4{g}G3/4d/4{g}B/4
d3/4|
{g}G3/4d/4{g}f3/4e/4{gde}d3/4c/4{g}B3/4A/4|  !
{gef}e3/4A/4{g}f3/4A/4{a}g3/4e/4{g}c3/4e/4|
{Gdc}d{g}f{Gdc}d:| |:
{g}c3/4d/4|  !
{g}e3/4A/4{gAGAG}A{g}f3/4A/4{gAGAG}A|
{a}g3/4A/4{gAGAG}A{g}f3/4A/4{gAGAG}A|
{gef}e3/4A/4{g}f3/4A/4{a}g3/4A/4{g}f3/4A/4|  !
{gef}e3/4d/4{g}c3/4B/4{G}A{g}d3/4B/4{g}G3/4d/4{g}B/4d3/4{g}G3/4d/4{g}B/4
d3/4|
{g}G3/4d/4{g}f3/4e/4{gde}d3/4c/4{g}B3/4A/4|
{gef}e3/4A/4{g}f3/4A/4{a}g3/4e/4{g}c3/4e/4|  !
{Gdc}d{g}f{Gdc}d:|
